X:37
T: Lobt Gott ihr Christen alle
N: A0395
O: Europa, Mitteleuropa, Deutschland
N: J. Ott 1544 III No. 5.
R: Romanze, Ballade, Lied, religioeses Lied
M: 4/2
L: 1/2
K: G
d | ddde | =f2f
f | gdee | d2z
d | dddd | c2c
d | _BGAA | G2z
G | AAAA | _B2A
A | dddc | A2z
d | ddee | =f2f
e | d_BcA | G3

@@@ Tune index: 350
